public/img/Icono union.svg

<?xml version="1.0" standalone="no"?>
<!DOCTYPE svg PUBLIC "-//W3C//DTD SVG 1.0//EN" "http://www.w3.org/TR/2001/REC-SVG-20010904/DTD/svg10.dtd">
<svg xmlns="http://www.w3.org/2000/svg" xmlns:xlink="http://www.w3.org/1999/xlink" id="body_1" width="819" height="614">

<g transform="matrix(4.3330984 0 0 4.3330984 102.5 -0)">
    <path d="M70 38.3L29.1 38.3C 17.2 38.3 7.6 48 7.6 59.9C 7.6 71.8 17.3 81.5 29.2 81.5L29.2 81.5L70 81.5C 81.9 81.5 91.6 71.8 91.6 59.9C 91.6 48 81.9 38.3 70 38.3zM65.8 70.7L33.4 70.7C 27.400002 70.7 22.600002 65.899994 22.600002 59.899998C 22.600002 53.9 27.400002 49.1 33.4 49.1L33.4 49.1L65.8 49.1C 71.8 49.1 76.600006 53.899998 76.600006 59.899998C 76.600006 65.899994 71.8 70.7 65.8 70.7z" stroke="none" fill="#85A64C" fill-rule="nonzero" />
    <path d="M63.8 70.7C 65.7 67.5 69.2 65.299995 73.1 65.299995L73.1 65.299995L105.5 65.299995C 111.5 65.299995 116.3 70.1 116.3 76.1C 116.3 82.1 111.5 86.9 105.5 86.9L105.5 86.9L73.2 86.9C 69.2 86.9 65.7 84.700005 63.899998 81.5L63.899998 81.5L48.1 81.5C 50.5 90.8 58.899998 97.7 69 97.7L69 97.7L109.9 97.7C 121.8 97.7 131.5 88 131.5 76.1C 131.5 64.2 121.8 54.5 109.9 54.5L109.9 54.5L69 54.5C 59 54.5 50.6 61.3 48.1 70.5L48.1 70.5L64.1 70.6" stroke="none" fill="#85A64C" fill-rule="nonzero" />
</g>
</svg>

<?xml version="1.0" encoding="utf-8"?>
<!-- Generator: Adobe Illustrator 25.0.0, SVG Export Plug-In . SVG Version: 6.00 Build 0)  -->
<svg version="1.1" id="Capa_1" xmlns="http://www.w3.org/2000/svg" xmlns:xlink="http://www.w3.org/1999/xlink" x="0px" y="0px"
	 viewBox="0 0 141.7 141.7" style="enable-background:new 0 0 141.7 141.7;" xml:space="preserve">
<style type="text/css">
	.st0{fill:#85A64C;}
</style>
<path class="st0" d="M70,38.3H29.1C17.2,38.3,7.6,48,7.6,59.9s9.7,21.6,21.6,21.6H70c11.9,0,21.6-9.7,21.6-21.6S81.9,38.3,70,38.3z
	 M65.8,70.7H33.4c-6,0-10.8-4.8-10.8-10.8s4.8-10.8,10.8-10.8h32.4c6,0,10.8,4.8,10.8,10.8S71.8,70.7,65.8,70.7z"/>
<path class="st0" d="M63.8,70.7c1.9-3.2,5.4-5.4,9.3-5.4h32.4c6,0,10.8,4.8,10.8,10.8s-4.8,10.8-10.8,10.8H73.2
	c-4,0-7.5-2.2-9.3-5.4H48.1c2.4,9.3,10.8,16.2,20.9,16.2h40.9c11.9,0,21.6-9.7,21.6-21.6s-9.7-21.6-21.6-21.6H69
	c-10,0-18.4,6.8-20.9,16l16,0.1"/>
</svg>
